packages/ui/src/components/Icon/Icon.assets/paper.svg

<svg width="18" height="22" viewBox="0 0 18 22" fill="none" xmlns="http://www.w3.org/2000/svg">
<path fill-rule="evenodd" clip-rule="evenodd" d="M17 22C17.5517 22 18 21.5517 18 21V1C18 0.448285 17.5517 0 17 0H1C0.448285 0 0 0.448285 0 1V21C0 21.5517 0.448285 22 1 22H17ZM4 6.0273H14C14.5523 6.0273 15 5.57958 15 5.0273C15 4.47502 14.5523 4.0273 14 4.0273H4C3.44772 4.0273 3 4.47502 3 5.0273C3 5.57958 3.44772 6.0273 4 6.0273ZM4 11.0273H14C14.5523 11.0273 15 10.5796 15 10.0273C15 9.47501 14.5523 9.0273 14 9.0273H4C3.44772 9.0273 3 9.47501 3 10.0273C3 10.5796 3.44772 11.0273 4 11.0273ZM4 16.0273H9C9.55229 16.0273 10 15.5796 10 15.0273C10 14.475 9.55229 14.0273 9 14.0273H4C3.44772 14.0273 3 14.475 3 15.0273C3 15.5796 3.44772 16.0273 4 16.0273Z" fill="white"/>
</svg>

<svg width="18" height="22" fill="none" xmlns="http://www.w3.org/2000/svg"><path fill-rule="evenodd" clip-rule="evenodd" d="M17 22a1 1 0 001-1V1a1 1 0 00-1-1H1a1 1 0 00-1 1v20a1 1 0 001 1h16zM4 6.027h10a1 1 0 100-2H4a1 1 0 000 2zm0 5h10a1 1 0 100-2H4a1 1 0 100 2zm0 5h5a1 1 0 100-2H4a1 1 0 100 2z" fill="#fff"/></svg>
